X:1
T:St. Drostane, LM
T:St. Drostane, LM
T:John Bacchus Dykes, 1862
T:Public Domain Courtesy of the Cyber Hymnal™
C:John Bacchus Dykes, 1862
Z:Public Domain
Z:Courtesy of the Cyber Hymnal™
%%score ( 1 2 ) ( 3 4 )
L:1/8
Q:1/4=108
M:4/4
K:Bb
V:1 treble 
V:2 treble 
V:3 bass 
V:4 bass 
V:1
 F2 | B2 F2 [EB]2 [Ec]2 | [Dd]3 [Ec] [DB]2 F2 | [Fe]2 [Fd]2 [Fc]2 [Fc]2 | [=Ec]3 [CE] [CF]2 [CF]2 | %5
 [CF]2 [B,F]2 [B,E]2 [B,F]2 | [CG]2 [CG]2 [CF]2 [FA]2 | B2 F2 [B,G]2 [B,D]2 x | %8
 F3 z E !fermata![B,D]2 |] %9
V:2
 F2 | B2 F2 x4 | x6 F2 | x8 | x8 | x8 | x8 | (FE) (DC) x5 | D2 C2 x3 |] %9
V:3
 F,2 | B,2 [D,B,]2 (G,F,) (G,A,) | [B,,B,]3 [B,,F,] [B,,F,]2 [D,B,]2 | %3
 [A,,C]2 [B,,B,]2 [C,A,]2 (G,A,) | [C,B,]3 [C,G,] [F,A,]2 [F,A,]2 | %5
 [D,F,]2 [D,_A,]2 [E,G,]2 [E,G,]2 | [=E,G,]2 [E,B,]2 [F,A,]2 C2 | B,3 z _A, [E,G,]2 [G,B,]2 | %8
 [F,B,]2 (A,F,) !fermata![B,,F,]2 x |] %9
V:4
 F,2 | B,2 E,2 C,2 x2 | x8 | x6 C,2 | x8 | x8 | x6 (F,=E,) | (D,C,) B,,2 x5 | x2 F,,2 x3 |] %9

